X: 1
T: The New Rigged Ship
R: jig
M: 6/8
L: 1/8
K: Dmaj
ded d2f|ded d2f|ecA Ace|ecA ABc|
ded d2f|ded d2f|ecA ABc|d3 d3:|
|:a2f a2f|ded dga|b2g b2g|efe efg|
a2f a2f|ded g3|ecA ABc|d3 d3:||


Tune 1207	Setting 14499

